X: 41432
T: Two Birds In The Bush, The
R: reel
M: 4/4
K: Adorian
A2BA eA~A2|BdAB G2AG|EA~A2 BAGA|B/A/Bde gedB|
A2BA eA~A2|BdAB G2AG|EA~A2 BAGA|1 B/A/BdB A2EG:|2 B/A/BdB A2dc||
B/A/GBd gdga|(3bag (3agf gedc|B/A/GBd gdga|(3bag (3agf g2ga|
bagb agef|gedB AE~E2|GABd dBeB|dBAB G2dc:|

